src/amo/components/CategoryIcon/img/scenery.svg

<svg xmlns="http://www.w3.org/2000/svg" width="64" height="64" viewBox="0 0 64 64">
  <g class="one" fill="#0F1126">
    <path d="M27.1386273,8.16140686 C26.9394014,7.61166932 26.8307692,7.01852087 26.8307692,6.4 C26.8307692,3.54511268 29.1451127,1.23076923 32,1.23076923 C34.8548873,1.23076923 37.1692308,3.54511268 37.1692308,6.4 C37.1692308,7.01861382 37.0605659,7.61184761 36.8612829,8.16165471 L50.4057849,17.1913227 C50.9713586,17.5683719 51.124188,18.3325188 50.7471388,18.8980925 C50.3700896,19.4636663 49.6059428,19.6164957 49.040369,19.2394465 L35.4946868,10.2089917 C34.5745554,11.0536462 33.3474883,11.5692308 32,11.5692308 C30.6524169,11.5692308 29.4252719,11.0535737 28.505119,10.2088134 L14.9596471,19.2394358 C14.3940793,19.6164939 13.62993,19.4636765 13.2528719,18.8981087 C12.8758138,18.3325408 13.0286312,17.5683915 13.594199,17.1913335 L27.1386273,8.16140686 Z M32,9.10769231 C33.4954172,9.10769231 34.7076923,7.89541717 34.7076923,6.4 C34.7076923,4.90458283 33.4954172,3.69230769 32,3.69230769 C30.5045828,3.69230769 29.2923077,4.90458283 29.2923077,6.4 C29.2923077,7.89541717 30.5045828,9.10769231 32,9.10769231 Z M24.1230769,38.1538462 C20.7244015,38.1538462 17.9692308,35.3986754 17.9692308,32 C17.9692308,28.6013246 20.7244015,25.8461538 24.1230769,25.8461538 C27.5217523,25.8461538 30.2769231,28.6013246 30.2769231,32 C30.2769231,35.3986754 27.5217523,38.1538462 24.1230769,38.1538462 Z M24.1230769,35.6923077 C26.1622822,35.6923077 27.8153846,34.0392052 27.8153846,32 C27.8153846,29.9607948 26.1622822,28.3076923 24.1230769,28.3076923 C22.0838717,28.3076923 20.4307692,29.9607948 20.4307692,32 C20.4307692,34.0392052 22.0838717,35.6923077 24.1230769,35.6923077 Z M25.3234522,53.6379924 L16.3969024,46.4967525 L10.2800944,53.4873903 C9.83248571,53.9989431 9.05493172,54.05078 8.54337894,53.6031713 C8.03182617,53.1555626 7.97998923,52.3780086 8.42759791,51.8664559 L15.3199056,43.9895328 C15.7536226,43.4938562 16.5006984,43.427482 17.0150093,43.8389307 L25.919123,50.9622217 L39.9160353,34.1659269 C40.3902119,33.5969151 41.2559143,33.5725864 41.7612988,34.1140698 L55.5459142,48.8833006 C56.0097098,49.3802245 55.9828541,50.1590416 55.4859302,50.6228373 C54.9890062,51.0866329 54.2101892,51.0597771 53.7463935,50.5628532 L40.9138041,36.8136503 L27.0378108,53.4648423 C26.6087956,53.9796606 25.8467462,54.0566275 25.3234522,53.6379924 Z"/>
  </g>
  <g class="two" fill="#0F1126">
    <path d="M4.92307692,59.0769231 L59.0769231,59.0769231 L59.0769231,20.6769231 L4.92307692,20.6769231 L4.92307692,59.0769231 Z M2.46153846,15.7538462 L61.5384615,15.7538462 C62.8979317,15.7538462 64,16.8559145 64,18.2153846 L64,61.5384615 C64,62.8979317 62.8979317,64 61.5384615,64 L2.46153846,64 C1.10206831,64 0,62.8979317 0,61.5384615 L0,18.2153846 C0,16.8559145 1.10206831,15.7538462 2.46153846,15.7538462 Z"/>
  </g>
</svg>

<svg xmlns="http://www.w3.org/2000/svg" width="64" height="64"><path d="M27.139 8.161a5.17 5.17 0 1 1 9.723 0l13.544 9.03a1.23 1.23 0 0 1-1.366 2.048l-13.545-9.03A5.15 5.15 0 0 1 32 11.569a5.15 5.15 0 0 1-3.495-1.36l-13.545 9.03a1.23 1.23 0 0 1-1.366-2.048l13.545-9.03ZM32 9.108a2.708 2.708 0 1 0 0-5.416 2.708 2.708 0 0 0 0 5.416Zm-7.877 29.046a6.154 6.154 0 1 1 0-12.308 6.154 6.154 0 0 1 0 12.308Zm0-2.462a3.692 3.692 0 1 0 0-7.384 3.692 3.692 0 0 0 0 7.384Zm1.2 17.946-8.926-7.141-6.117 6.99a1.23 1.23 0 1 1-1.852-1.62l6.892-7.877a1.23 1.23 0 0 1 1.695-.151l8.904 7.123 13.997-16.796a1.23 1.23 0 0 1 1.845-.052l13.785 14.77a1.23 1.23 0 0 1-1.8 1.679l-12.832-13.75-13.876 16.652a1.23 1.23 0 0 1-1.715.173Z" class="one" fill="#0F1126"/><path d="M4.923 59.077h54.154v-38.4H4.923v38.4ZM2.462 15.754h59.076A2.462 2.462 0 0 1 64 18.215v43.323A2.462 2.462 0 0 1 61.538 64H2.462A2.462 2.462 0 0 1 0 61.538V18.215a2.462 2.462 0 0 1 2.462-2.461Z" class="two" fill="#0F1126"/></svg>
